app/images/icons/icons8-github.svg

<svg height="50" viewBox="0 0 100 100" width="50" xmlns="http://www.w3.org/2000/svg"><path d="m77 12a1 1 0 1 0 0 2 1 1 0 1 0 0-2z" fill="#f1bc19"/><path d="m50 13a37 37 0 1 0 0 74 37 37 0 1 0 0-74z" fill="#e4e4f9"/><path d="m83 11a4 4 0 1 0 0 8 4 4 0 1 0 0-8z" fill="#f1bc19"/><path d="m87 22a2 2 0 1 0 0 4 2 2 0 1 0 0-4z" fill="#8889b9"/><path d="m81 74a2 2 0 1 0 0 4 2 2 0 1 0 0-4zm-66-15a4 4 0 1 0 0 8 4 4 0 1 0 0-8z" fill="#fbcd59"/><path d="m25 85a2 2 0 1 0 0 4 2 2 0 1 0 0-4z" fill="#8889b9"/><path d="m18.5 49a2.5 2.5 0 1 0 0 5 2.5 2.5 0 1 0 0-5zm61-17a1.5 1.5 0 1 0 0 3 1.5 1.5 0 1 0 0-3z" fill="#fff"/><path d="m50 25.625a24.25 24.25 0 1 0 0 48.5 24.25 24.25 0 1 0 0-48.5z" fill="#a3a3cd"/><path d="m50 74.825c-13.757 0-24.95-11.192-24.95-24.95s11.193-24.95 24.95-24.95 24.95 11.192 24.95 24.95-11.193 24.95-24.95 24.95zm0-48.5c-12.985 0-23.55 10.564-23.55 23.55s10.565 23.55 23.55 23.55 23.55-10.564 23.55-23.55-10.565-23.55-23.55-23.55z" fill="#472b29"/><path d="m50 29.167a20.5 20.5 0 1 0 0 41 20.5 20.5 0 1 0 0-41z" fill="#565fa1"/><path d="m69.424 44.625c-.214 0-.412-.139-.478-.354-.088-.287-.183-.571-.284-.853-.392-1.094-.886-2.159-1.47-3.169-.139-.238-.057-.545.182-.683.239-.141.545-.057.683.183.614 1.061 1.134 2.182 1.546 3.331.106.297.206.595.298.897.081.264-.067.544-.332.625-.048.016-.097.023-.145.023z" fill="#472b29"/><path d="m50 70.75c-11.511 0-20.875-9.337-20.875-20.813s9.364-20.812 20.875-20.812c5.975 0 11.674 2.56 15.636 7.023.299.337.588.685.865 1.041.169.218.13.531-.087.701-.218.171-.532.131-.702-.088-.264-.339-.54-.669-.824-.99-3.772-4.25-9.199-6.688-14.888-6.688-10.959 0-19.875 8.888-19.875 19.813s8.916 19.813 19.875 19.813 19.875-8.888 19.875-19.813c0-.995-.075-1.996-.222-2.973-.041-.272.147-.527.42-.568.278-.045.528.147.569.42.154 1.025.233 2.076.233 3.121 0 11.476-9.364 20.813-20.875 20.813z" fill="#472b29"/><path d="m61.496 42.088c.365-1.671.206-3.743-.486-5.818-3.622 0-6.339 2.716-6.339 2.716s.016.018.02.023c-.064-.001-.126-.009-.191-.009h-9c-.043 0-.085.006-.128.006.003-.004.017-.02.017-.02s-2.717-2.716-6.339-2.716c-.684 2.053-.85 4.104-.5 5.767-1.577 1.695-2.55 3.963-2.55 6.463 0 5.247 4.253 9.5 9.5 9.5h1.073c-1.304.709-2.246 1.979-2.493 3.498-1.72.232-3.979.18-5.028-1.394-1.811-2.717-2.717-2.717-3.622-2.717s-.906.906 0 1.811c.906.906.906.906 1.811 2.717.772 1.543 2.812 3.298 6.76 2.663v3.523c0 .447.079.871.191 1.282 2.425.577 6.502 1.061 11.665-.151.086-.364.143-.739.143-1.13v-5.816c0-1.858-1.047-3.456-2.573-4.286h1.073c5.247 0 9.5-4.253 9.5-9.5 0-2.475-.954-4.721-2.504-6.412z" fill="#fefdef"/><path d="m49.532 70.486c-2.23 0-4.075-.287-5.457-.616-.178-.042-.319-.179-.367-.355-.142-.522-.208-.972-.208-1.413v-2.952c-4.563.514-6.279-2.154-6.707-3.011-.87-1.739-.87-1.739-1.717-2.587-.701-.701-.979-1.458-.745-2.023.169-.408.569-.642 1.098-.642 1.217 0 2.219.211 4.038 2.939.839 1.258 2.676 1.379 4.193 1.218.23-.978.724-1.855 1.423-2.554-5.321-.218-9.583-4.615-9.583-9.99 0-2.442.891-4.78 2.513-6.613-.306-1.722-.108-3.761.564-5.775.068-.204.259-.342.474-.342 3.357 0 5.931 2.16 6.552 2.73h8.854c.621-.57 3.195-2.73 6.552-2.73.215 0 .406.138.474.342.679 2.037.872 4.096.551 5.83 1.591 1.826 2.465 4.146 2.465 6.559 0 5.375-4.263 9.773-9.585 9.991 1.001.997 1.585 2.354 1.585 3.794v5.816c0 .392-.052.8-.158 1.246-.043.185-.188.328-.372.371-2.387.561-4.55.767-6.437.767zm-4.93-1.521c2.412.537 6.153.9 10.83-.148.045-.253.068-.489.068-.715v-5.816c0-1.597-.886-3.07-2.312-3.846-.201-.109-.302-.341-.246-.563s.256-.377.484-.377h1.074c4.962 0 9-4.037 9-9 0-2.247-.843-4.404-2.373-6.074-.11-.12-.154-.286-.12-.444.331-1.517.202-3.352-.36-5.202-2.87.153-5.098 2.074-5.542 2.484-.091.151-.245.246-.429.246-.007 0-.096-.006-.103-.006l-9.073-.004c-.152 0-.332-.067-.442-.181l-.021.021c-.025-.024-2.438-2.39-5.623-2.561-.557 1.831-.69 3.649-.373 5.154.034.159-.013.325-.124.444-1.559 1.675-2.417 3.85-2.417 6.123 0 4.963 4.038 9 9 9h1.073c.229 0 .428.155.484.377.057.222-.044.453-.246.563-1.205.654-2.021 1.799-2.238 3.139-.036.218-.208.386-.427.415-2.664.358-4.568-.198-5.511-1.611-1.663-2.494-2.412-2.494-3.206-2.494-.137 0-.18.032-.181.032-.025.064.043.435.534.926.963.963.998 1.033 1.905 2.847.369.736 1.911 3.093 6.233 2.392.147-.021.292.019.404.113.111.096.176.234.176.381v3.523c0 .269.033.548.102.862z" fill="#472b29"/><path d="m60.437 51.362c-.9 1.994-2.876 3.652-6.354 3.93" fill="#fefdef"/><path d="m54.083 55.542c-.129 0-.238-.1-.249-.23-.011-.138.091-.258.229-.269 3.805-.305 5.442-2.227 6.146-3.784.058-.127.205-.183.331-.125.125.057.182.204.125.33-1.073 2.377-3.403 3.824-6.562 4.077-.006.001-.013.001-.02.001z" fill="#472b29"/><path d="m60.959 47.41c.111.753.109 1.552-.03 2.342" fill="#fefdef"/><path d="m60.93 50.002c-.015 0-.029-.001-.044-.004-.136-.023-.227-.153-.203-.289.129-.734.139-1.517.029-2.263-.021-.136.074-.264.21-.283.137-.02.264.073.284.211.12.809.109 1.624-.031 2.421-.02.122-.126.207-.245.207z" fill="#472b29"/><path d="m59.083 43.875c.633.451 1.146 1.179 1.488 2.055" fill="#fefdef"/><path d="m60.571 46.181c-.1 0-.194-.061-.233-.159-.334-.856-.818-1.528-1.4-1.942-.112-.08-.139-.236-.059-.349.081-.113.236-.138.349-.06.662.472 1.207 1.222 1.576 2.169.05.129-.014.273-.142.324-.03.011-.06.017-.091.017z" fill="#472b29"/></svg>

<svg xmlns="http://www.w3.org/2000/svg" viewBox="0 0 100 100" width="50px" height="50px"><path fill="#f1bc19" d="M77 12A1 1 0 1 0 77 14A1 1 0 1 0 77 12Z"/><path fill="#e4e4f9" d="M50 13A37 37 0 1 0 50 87A37 37 0 1 0 50 13Z"/><path fill="#f1bc19" d="M83 11A4 4 0 1 0 83 19A4 4 0 1 0 83 11Z"/><path fill="#8889b9" d="M87 22A2 2 0 1 0 87 26A2 2 0 1 0 87 22Z"/><path fill="#fbcd59" d="M81 74A2 2 0 1 0 81 78 2 2 0 1 0 81 74zM15 59A4 4 0 1 0 15 67 4 4 0 1 0 15 59z"/><path fill="#8889b9" d="M25 85A2 2 0 1 0 25 89A2 2 0 1 0 25 85Z"/><path fill="#fff" d="M18.5 49A2.5 2.5 0 1 0 18.5 54 2.5 2.5 0 1 0 18.5 49zM79.5 32A1.5 1.5 0 1 0 79.5 35 1.5 1.5 0 1 0 79.5 32z"/><g><path fill="#a3a3cd" d="M50 25.625A24.25 24.25 0 1 0 50 74.125A24.25 24.25 0 1 0 50 25.625Z"/><path fill="#472b29" d="M50,74.825c-13.757,0-24.95-11.192-24.95-24.95S36.243,24.925,50,24.925s24.95,11.192,24.95,24.95 S63.757,74.825,50,74.825z M50,26.325c-12.985,0-23.55,10.564-23.55,23.55S37.015,73.425,50,73.425s23.55-10.564,23.55-23.55 S62.985,26.325,50,26.325z"/></g><g><path fill="#565fa1" d="M50 29.167A20.5 20.5 0 1 0 50 70.167A20.5 20.5 0 1 0 50 29.167Z"/></g><g><path fill="#472b29" d="M69.424,44.625c-0.214,0-0.412-0.139-0.478-0.354c-0.088-0.287-0.183-0.571-0.284-0.853 c-0.392-1.094-0.886-2.159-1.47-3.169c-0.139-0.238-0.057-0.545,0.182-0.683c0.239-0.141,0.545-0.057,0.683,0.183 c0.614,1.061,1.134,2.182,1.546,3.331c0.106,0.297,0.206,0.595,0.298,0.897c0.081,0.264-0.067,0.544-0.332,0.625 C69.521,44.618,69.472,44.625,69.424,44.625z"/></g><g><path fill="#472b29" d="M50,70.75c-11.511,0-20.875-9.337-20.875-20.813S38.489,29.125,50,29.125 c5.975,0,11.674,2.56,15.636,7.023c0.299,0.337,0.588,0.685,0.865,1.041c0.169,0.218,0.13,0.531-0.087,0.701 c-0.218,0.171-0.532,0.131-0.702-0.088c-0.264-0.339-0.54-0.669-0.824-0.99c-3.772-4.25-9.199-6.688-14.888-6.688 c-10.959,0-19.875,8.888-19.875,19.813S39.041,69.75,50,69.75s19.875-8.888,19.875-19.813c0-0.995-0.075-1.996-0.222-2.973 c-0.041-0.272,0.147-0.527,0.42-0.568c0.278-0.045,0.528,0.147,0.569,0.42c0.154,1.025,0.233,2.076,0.233,3.121 C70.875,61.413,61.511,70.75,50,70.75z"/></g><g><path fill="#fefdef" d="M61.496,42.088c0.365-1.671,0.206-3.743-0.486-5.818c-3.622,0-6.339,2.716-6.339,2.716 s0.016,0.018,0.02,0.023C54.627,39.008,54.565,39,54.5,39h-9c-0.043,0-0.085,0.006-0.128,0.006c0.003-0.004,0.017-0.02,0.017-0.02 s-2.717-2.716-6.339-2.716c-0.684,2.053-0.85,4.104-0.5,5.767C36.973,43.732,36,46,36,48.5c0,5.247,4.253,9.5,9.5,9.5h1.073 c-1.304,0.709-2.246,1.979-2.493,3.498c-1.72,0.232-3.979,0.18-5.028-1.394c-1.811-2.717-2.717-2.717-3.622-2.717 s-0.906,0.906,0,1.811c0.906,0.906,0.906,0.906,1.811,2.717c0.772,1.543,2.812,3.298,6.76,2.663v3.523 c0,0.447,0.079,0.871,0.191,1.282c2.425,0.577,6.502,1.061,11.665-0.151C55.943,68.868,56,68.493,56,68.102v-5.816 c0-1.858-1.047-3.456-2.573-4.286H54.5c5.247,0,9.5-4.253,9.5-9.5C64,46.025,63.046,43.779,61.496,42.088z"/><path fill="#472b29" d="M49.532,70.486c-2.23,0-4.075-0.287-5.457-0.616c-0.178-0.042-0.319-0.179-0.367-0.355 c-0.142-0.522-0.208-0.972-0.208-1.413V65.15c-4.563,0.514-6.279-2.154-6.707-3.011c-0.87-1.739-0.87-1.739-1.717-2.587 c-0.701-0.701-0.979-1.458-0.745-2.023c0.169-0.408,0.569-0.642,1.098-0.642c1.217,0,2.219,0.211,4.038,2.939 c0.839,1.258,2.676,1.379,4.193,1.218c0.23-0.978,0.724-1.855,1.423-2.554C39.762,58.272,35.5,53.875,35.5,48.5 c0-2.442,0.891-4.78,2.513-6.613c-0.306-1.722-0.108-3.761,0.564-5.775c0.068-0.204,0.259-0.342,0.474-0.342 c3.357,0,5.931,2.16,6.552,2.73h8.854c0.621-0.57,3.195-2.73,6.552-2.73c0.215,0,0.406,0.138,0.474,0.342 c0.679,2.037,0.872,4.096,0.551,5.83c1.591,1.826,2.465,4.146,2.465,6.559c0,5.375-4.263,9.773-9.585,9.991 c1.001,0.997,1.585,2.354,1.585,3.794v5.816c0,0.392-0.052,0.8-0.158,1.246c-0.043,0.185-0.188,0.328-0.372,0.371 C53.582,70.28,51.419,70.486,49.532,70.486z M44.602,68.965c2.412,0.537,6.153,0.9,10.83-0.148 c0.045-0.253,0.068-0.489,0.068-0.715v-5.816c0-1.597-0.886-3.07-2.312-3.846c-0.201-0.109-0.302-0.341-0.246-0.563 c0.056-0.222,0.256-0.377,0.484-0.377H54.5c4.962,0,9-4.037,9-9c0-2.247-0.843-4.404-2.373-6.074 c-0.11-0.12-0.154-0.286-0.12-0.444c0.331-1.517,0.202-3.352-0.36-5.202c-2.87,0.153-5.098,2.074-5.542,2.484 c-0.091,0.151-0.245,0.246-0.429,0.246c-0.007,0-0.096-0.006-0.103-0.006L45.5,39.5c-0.152,0-0.332-0.067-0.442-0.181l-0.021,0.021 c-0.025-0.024-2.438-2.39-5.623-2.561c-0.557,1.831-0.69,3.649-0.373,5.154c0.034,0.159-0.013,0.325-0.124,0.444 C37.358,44.052,36.5,46.227,36.5,48.5c0,4.963,4.038,9,9,9h1.073c0.229,0,0.428,0.155,0.484,0.377 c0.057,0.222-0.044,0.453-0.246,0.563c-1.205,0.654-2.021,1.799-2.238,3.139c-0.036,0.218-0.208,0.386-0.427,0.415 c-2.664,0.358-4.568-0.198-5.511-1.611c-1.663-2.494-2.412-2.494-3.206-2.494c-0.137,0-0.18,0.032-0.181,0.032 c-0.025,0.064,0.043,0.435,0.534,0.926c0.963,0.963,0.998,1.033,1.905,2.847c0.369,0.736,1.911,3.093,6.233,2.392 c0.147-0.021,0.292,0.019,0.404,0.113c0.111,0.096,0.176,0.234,0.176,0.381v3.523C44.5,68.372,44.533,68.651,44.602,68.965z"/></g><g><path fill="#fefdef" d="M60.437,51.362c-0.9,1.994-2.876,3.652-6.354,3.93"/><path fill="#472b29" d="M54.083,55.542c-0.129,0-0.238-0.1-0.249-0.23c-0.011-0.138,0.091-0.258,0.229-0.269 c3.805-0.305,5.442-2.227,6.146-3.784c0.058-0.127,0.205-0.183,0.331-0.125c0.125,0.057,0.182,0.204,0.125,0.33 c-1.073,2.377-3.403,3.824-6.562,4.077C54.097,55.542,54.09,55.542,54.083,55.542z"/></g><g><path fill="#fefdef" d="M60.959,47.41c0.111,0.753,0.109,1.552-0.03,2.342"/><path fill="#472b29" d="M60.93,50.002c-0.015,0-0.029-0.001-0.044-0.004c-0.136-0.023-0.227-0.153-0.203-0.289 c0.129-0.734,0.139-1.517,0.029-2.263c-0.021-0.136,0.074-0.264,0.21-0.283c0.137-0.02,0.264,0.073,0.284,0.211 c0.12,0.809,0.109,1.624-0.031,2.421C61.155,49.917,61.049,50.002,60.93,50.002z"/></g><g><path fill="#fefdef" d="M59.083,43.875c0.633,0.451,1.146,1.179,1.488,2.055"/><path fill="#472b29" d="M60.571,46.181c-0.1,0-0.194-0.061-0.233-0.159c-0.334-0.856-0.818-1.528-1.4-1.942 c-0.112-0.08-0.139-0.236-0.059-0.349c0.081-0.113,0.236-0.138,0.349-0.06c0.662,0.472,1.207,1.222,1.576,2.169 c0.05,0.129-0.014,0.273-0.142,0.324C60.632,46.175,60.602,46.181,60.571,46.181z"/></g></svg>
